X: 29401
T: Nickie McAuliffe's
R: jig
M: 6/8
K: Gmajor
D|G3 B3|gfd dcA|AGF dcA|AGF AGF|
G3 B3|gfd dcA|AGF d2B|cAF G2:|:g||
gfa g3|gfa gfd|cAd cAG|FAG FDC|
gfa gfd|gfa gag|fdc Agf|dcA G2:|

